!!!OTL: "Der Guckkasten" HOERT, LIEBEN LEUTE, KOMMET DOCH
!!!ARE: Europa, Mitteleuropa, Deutschland, Sued - Deutschland
!!!SCT: Z0164
!!!YEM: Copyright 1995, estate of Helmut Schaffrath.
**kern
*ICvox
*Ivox
*M2/4
*k[f#]
*G:
{8d
=1
8.g
16a
8.b
16g
=2
8a
8a
8.dd}
{16cc
=3
8.b
16a
8g
8b
=4
8f#
8a
8d}
{8d
=5
8.g
16a
8b
8g
=6
8a
8a
8dd}
{8dd
=7
8dd
8cc
8b
8a
=8
8a
8a
8g
8r}
=9
{16b
16a
16b
16cc
4dd
=10
16b
16a
16b
16cc
4dd}
=11
{16cc
16dd
16cc
16b
16a
16b
16a
16g
=12
8f#
8a
4d}
=13
{16b
16a
16b
16cc
4dd
=14
16b
16a
16b
16cc
4dd}
=15
{16cc
16b
16a
16g
16f#
16g
16a
16f#
=16
8g
8b
8g}
==
!!!AGN: Erzaehlung, lustige Romanze
!!!ONB: ESAC (Essen Associative Code) Database: ZUCCAL
!!!AMT: simple duple
!!!AIN: vox
!!!EED: Helmut Schaffrath
!!!EEV: 1.0
*-
